X: 3414
T: INVERARAY MARCH
Q: "Tempo di marcia."
R: March
%R: march
B: James Kerr "Merry Melodies" v.3 p.46 #414
Z: 2016 John Chambers <jc:trillian.mit.edu>
M: C
L: 1/8
K: G
uG>uA |\
vB2uB>uB B2G>B | d2d>d d2e2 | dBcA BdGB | A2A>B A2G>A |\
B2B>B B2G>B | d2d>d d2e2 | dBAc BdcA | G2G>G G2 :|
|: (G/A/B/c/) |\
d2d>d dBAB | G2G>G G2d2 | gfed BdGB | A2A>B A2G>A |\
B2B>B B2G>B | d2d>d d2e2 | dBAc BdcA | G2G>G G2 :|

%%sep 1 1 500
%%sep 1 1 500

